logos/adonisjs.svg

<?xml version="1.0" encoding="UTF-8"?>
<svg width="512px" height="161px" viewBox="0 0 512 161" version="1.1" xmlns="http://www.w3.org/2000/svg" xmlns:xlink="http://www.w3.org/1999/xlink" preserveAspectRatio="xMidYMid">
    <title>Adonis</title>
    <g>
        <path d="M80.0625489,160.125098 C15.4906799,160.125098 0,144.634329 0,80.0625489 C0,15.4907244 15.4906799,0 80.0625489,0 C144.634329,0 160.125098,15.4907244 160.125098,80.0625489 C160.125098,144.634329 144.634329,160.125098 80.0625489,160.125098 Z M57.3972861,39.6235781 L32.28589,96.6946538 C31.1444649,99.467042 30.1661006,103.053844 30.1661006,106.152265 C30.1661006,120.338459 40.1128048,130.285341 54.2988654,130.285341 C58.9478308,130.285341 62.80818,129.063942 66.7334689,127.822083 L66.7365824,127.820749 C70.7953088,126.53619 74.9234228,125.230281 80.0625489,125.230281 C85.2617218,125.230281 89.291092,126.524625 93.2715351,127.803847 L93.2728694,127.804292 C97.1567926,129.052378 100.994457,130.285341 105.825788,130.285341 C120.011982,130.285341 129.958864,120.338459 129.958864,106.152265 C129.958864,103.053844 128.980321,99.467042 127.83943,96.6946538 L102.728256,39.6235781 C98.4880549,30.0030399 90.3354635,24.7851412 80.0625489,24.7851412 C69.7896343,24.7851412 61.636598,30.0030399 57.3972861,39.6235781 Z M55.2774077,105.663438 L80.0625489,49.5707271 L104.521658,105.663438 C97.5099574,102.238985 88.7048562,100.608378 80.0625489,100.608378 C71.094209,100.608378 62.6151403,102.238985 55.2774077,105.663438 Z M292.707344,113.732854 C293.70012,112.988272 294.527433,112.24369 295.189283,111.499109 L295.189283,116.090696 L310.577305,116.090696 L310.577305,35.4275444 L295.189283,35.4275444 L295.189283,65.335043 C294.527433,64.5904613 293.70012,63.8458796 292.707344,63.1012979 C291.7973,62.3567162 290.721793,61.7362314 289.480824,61.2398436 C288.322585,60.6607245 286.998885,60.2057024 285.509721,59.8747772 C284.103289,59.543852 282.696857,59.3783894 281.290425,59.3783894 C277.236591,59.3783894 273.63778,60.1643367 270.49399,61.7362314 C267.350201,63.2253948 264.702799,65.2936774 262.551785,67.941079 C260.400771,70.5884806 258.746145,73.6495387 257.587907,77.1242533 C256.5124,80.5989679 255.974647,84.3632421 255.974647,88.4170758 C255.974647,92.3881783 256.5124,96.1524524 257.587907,99.7098984 C258.746145,103.184613 260.400771,106.245671 262.551785,108.893073 C264.702799,111.540474 267.350201,113.608757 270.49399,115.09792 C273.63778,116.587084 277.236591,117.331665 281.290425,117.331665 C282.696857,117.331665 284.103289,117.166203 285.509721,116.835278 C286.998885,116.504352 288.322585,116.090696 289.480824,115.594308 C290.721793,115.015189 291.7973,114.394704 292.707344,113.732854 L292.707344,113.732854 Z M290.969987,74.6423143 C292.872807,75.8005525 294.279239,77.3310816 295.189283,79.2339015 L295.189283,97.4761532 C294.279239,99.3789732 292.872807,100.950868 290.969987,102.191837 C289.067167,103.350076 286.957519,103.929195 284.641042,103.929195 C282.57276,103.929195 280.711306,103.556904 279.05668,102.812322 C277.402054,101.985009 275.995622,100.909502 274.837383,99.5858014 C273.761876,98.1793693 272.893198,96.5247433 272.231347,94.6219234 C271.652228,92.7191035 271.362669,90.650821 271.362669,88.4170758 C271.362669,86.1833307 271.652228,84.1150482 272.231347,82.2122283 C272.893198,80.3094084 273.761876,78.696148 274.837383,77.3724472 C275.995622,75.9660151 277.402054,74.8491426 279.05668,74.0218296 C280.711306,73.1945165 282.57276,72.78086 284.641042,72.78086 C286.957519,72.78086 289.067167,73.4013448 290.969987,74.6423143 L290.969987,74.6423143 Z M234.158937,113.112369 L234.158937,116.090696 L248.926474,116.090696 L248.926474,80.7230649 C248.926474,74.0218296 246.899557,68.8097576 242.845723,65.0868491 C238.791889,61.2812093 233.042064,59.3783894 225.596247,59.3783894 C222.452458,59.3783894 219.556862,59.8334115 216.909461,60.7434558 C214.262059,61.6535001 211.904217,62.9358353 209.835934,64.5904613 C207.850383,66.162356 206.195757,68.0238103 204.872056,70.1748241 C203.631087,72.3258379 202.803774,74.6423143 202.390117,77.1242533 L217.033557,77.1242533 C217.612677,75.4696273 218.564087,74.1872922 219.887787,73.2772478 C221.211488,72.3672035 222.990211,71.9121814 225.223956,71.9121814 C228.285014,71.9121814 230.518759,72.7394944 231.925192,74.3941204 C233.414355,76.0487464 234.158937,78.0756633 234.158937,80.474871 L234.158937,84.5700704 C233.000698,83.7427574 231.221976,82.9981757 228.822768,82.3363253 C226.42356,81.6744749 224.024352,81.3435496 221.625145,81.3435496 C218.564087,81.3435496 215.709857,81.7985718 213.062455,82.7086161 C210.497785,83.5359291 208.222674,84.735533 206.237123,86.3074277 C204.334303,87.7965911 202.845139,89.6580453 201.769633,91.8917905 C200.694126,94.0428043 200.156372,96.442012 200.156372,99.0894136 C200.156372,101.985009 200.694126,104.549679 201.769633,106.783425 C202.845139,109.01717 204.292937,110.91999 206.113026,112.491884 C208.015846,113.981048 210.208225,115.139286 212.690164,115.966599 C215.172103,116.711181 217.819505,117.083471 220.632369,117.083471 C223.693427,117.083471 226.464926,116.669815 228.946865,115.842502 C231.511535,114.932458 233.248892,114.022413 234.158937,113.112369 L234.158937,113.112369 Z M232.79387,94.9942142 C233.455721,95.5733333 233.910743,96.2351837 234.158937,96.9797654 L234.158937,101.074965 C233.910743,101.819547 233.455721,102.481397 232.79387,103.060516 C232.13202,103.639635 231.346072,104.136023 230.436028,104.549679 C229.525984,104.963336 228.533208,105.294261 227.457701,105.542455 C226.382194,105.707918 225.306688,105.790649 224.231181,105.790649 C222.990211,105.790649 221.790607,105.666552 220.632369,105.418358 C219.474131,105.170164 218.398624,104.756508 217.405848,104.177389 C216.495804,103.598269 215.751222,102.895053 215.172103,102.06774 C214.675715,101.240427 214.427522,100.206286 214.427522,98.9653167 C214.427522,97.8070784 214.675715,96.8143028 215.172103,95.9869898 C215.751222,95.0769455 216.495804,94.3323638 217.405848,93.7532447 C218.398624,93.1741256 219.474131,92.7604691 220.632369,92.5122752 C221.790607,92.2640813 222.990211,92.1399844 224.231181,92.1399844 C225.306688,92.1399844 226.382194,92.2640813 227.457701,92.5122752 C228.533208,92.6777378 229.525984,93.008663 230.436028,93.5050508 C231.346072,93.9187073 232.13202,94.4150951 232.79387,94.9942142 L232.79387,94.9942142 Z M372.816152,88.4170758 C372.816152,92.6363722 372.154301,96.5247433 370.8306,100.082189 C369.506899,103.639635 367.645,106.700693 365.245793,109.265364 C362.929761,111.830034 360.075531,113.815585 356.683548,115.222017 C353.374296,116.628449 349.692753,117.331665 345.638919,117.331665 C341.585086,117.331665 337.861732,116.628449 334.470194,115.222017 C331.160497,113.815585 328.306712,111.830034 325.907504,109.265364 C323.591028,106.700693 321.770939,103.639635 320.447238,100.082189 C319.123537,96.5247433 318.461687,92.6363722 318.461687,88.4170758 C318.461687,84.1150482 319.123537,80.2266771 320.447238,76.7519625 C321.770939,73.1945165 323.591028,70.1334584 325.907504,67.5687881 C328.306712,64.9213865 331.160497,62.8944696 334.470194,61.4880375 C337.861732,60.0816054 341.585086,59.3783894 345.638919,59.3783894 C349.692753,59.3783894 353.374296,60.0816054 356.683548,61.4880375 C360.075531,62.8944696 362.929761,64.9213865 365.245793,67.5687881 C367.645,70.1334584 369.506899,73.1945165 370.8306,76.7519625 C372.154301,80.2266771 372.816152,84.1150482 372.816152,88.4170758 L372.816152,88.4170758 Z M357.552227,88.4170758 C357.552227,86.1005994 357.304033,83.9495856 356.807645,81.9640344 C356.311257,79.9784832 355.52531,78.2824915 354.449803,76.8760594 C353.457027,75.4696273 352.216058,74.3941204 350.726894,73.6495387 C349.237731,72.8222257 347.541294,72.4085692 345.638919,72.4085692 C343.736099,72.4085692 342.039663,72.8222257 340.550944,73.6495387 C339.061781,74.3941204 337.779001,75.4696273 336.703939,76.8760594 C335.711163,78.2824915 334.966582,79.9784832 334.470194,81.9640344 C333.973806,83.9495856 333.725167,86.1005994 333.725167,88.4170758 C333.725167,90.7335523 333.973806,92.8845661 334.470194,94.8701173 C334.966582,96.7729372 335.711163,98.4275632 336.703939,99.8339953 C337.779001,101.240427 339.061781,102.3573 340.550944,103.184613 C342.039663,104.011926 343.736099,104.425582 345.638919,104.425582 C347.541294,104.425582 349.237731,104.011926 350.726894,103.184613 C352.216058,102.3573 353.457027,101.240427 354.449803,99.8339953 C355.52531,98.4275632 356.311257,96.7729372 356.807645,94.8701173 C357.304033,92.8845661 357.552227,90.7335523 357.552227,88.4170758 Z M396.17529,60.6193589 L380.787268,60.6193589 L380.787268,116.090696 L396.17529,116.090696 L396.17529,80.9712588 C396.423484,79.7302893 396.878506,78.6547824 397.540356,77.7447381 C398.202207,76.7519625 398.988154,75.9246495 399.898198,75.2627991 C400.808243,74.6009487 401.801018,74.1045609 402.876525,73.7736357 C403.952032,73.4427105 405.068905,73.2772478 406.227143,73.2772478 C409.288201,73.2772478 411.563312,74.1872922 413.052475,76.0073808 C414.541638,77.8274694 415.28622,80.1853114 415.28622,83.080907 L415.28622,116.090696 L430.674242,116.090696 L430.674242,79.8543862 C430.674242,73.73227 428.97825,68.8097576 425.586267,65.0868491 C422.194284,61.2812093 417.354503,59.3783894 411.066924,59.3783894 C407.923134,59.3783894 405.027539,59.9988741 402.380137,61.2398436 C399.732736,62.4808131 397.664453,63.9699765 396.17529,65.7073339 L396.17529,60.6193589 L396.17529,60.6193589 Z M441.331902,116.090696 L441.331902,60.6193589 L456.721258,60.6193589 L456.721258,116.090696 L441.331902,116.090696 Z M458.211311,44.6108522 C458.211311,47.2582538 457.299487,49.4092677 455.480288,51.0638937 C453.661089,52.6357884 451.508296,53.4217357 449.026357,53.4217357 C446.628929,53.4217357 444.517057,52.6357884 442.696968,51.0638937 C440.87688,49.4092677 439.966835,47.2582538 439.966835,44.6108522 C439.966835,42.0460485 440.87688,39.977766 442.696968,38.4058713 C444.517057,36.7512452 446.628929,35.9239322 449.026357,35.9239322 C451.508296,35.9239322 453.661089,36.7512452 455.480288,38.4058713 C457.299487,39.977766 458.211311,42.0460485 458.211311,44.6108522 Z M483.208618,104.177389 C481.553992,103.184613 480.437564,101.654084 479.859335,99.5858014 L464.594075,99.5858014 C465.007732,102.398666 465.875076,104.92197 467.200556,107.155715 C468.606099,109.306729 470.385266,111.168183 472.533611,112.740078 C474.686404,114.229242 477.168343,115.346114 479.979428,116.090696 C482.794961,116.918009 485.895161,117.331665 489.288924,117.331665 C492.433603,117.331665 495.409261,116.918009 498.224794,116.090696 C501.035879,115.263383 503.437755,114.105145 505.421527,112.615981 C507.48981,111.044087 509.104404,109.141267 510.260864,106.907522 C511.417323,104.673776 512,102.150472 512,99.3376075 C512,95.1183112 510.75903,91.6849622 508.277091,89.0375606 C505.795152,86.390159 502.112275,84.4459734 497.232908,83.2050039 L485.815099,80.5989679 C484.075962,80.1853114 482.794961,79.647558 481.967648,78.9857076 C481.220398,78.2411259 480.851221,77.3310816 480.851221,76.2555747 C480.851221,74.5182174 481.594023,73.2358822 483.084076,72.4085692 C484.654192,71.4985249 486.353297,71.0435027 488.172496,71.0435027 C490.734497,71.0435027 492.682686,71.5812562 494.003718,72.6567631 C495.409261,73.6495387 496.361115,74.9318739 496.859282,76.5037686 L511.377291,76.5037686 C510.549978,71.2089653 508.192581,67.0310347 504.305099,63.9699765 C500.417618,60.9089184 494.995604,59.3783894 488.047954,59.3783894 C484.903275,59.3783894 481.967648,59.8334115 479.236626,60.7434558 C476.590114,61.5707688 474.272748,62.7703727 472.288976,64.3422674 C470.300756,65.9141621 468.73064,67.816982 467.569733,70.0507271 C466.497785,72.2017409 465.959586,74.6423143 465.959586,77.3724472 C465.959586,82.0881314 467.280619,85.6455773 469.931578,88.044785 C472.658153,90.3612614 476.136426,92.0158874 480.353054,93.008663 L491.521779,95.490602 C493.425489,95.9869898 494.791,96.6074746 495.618313,97.3520563 C496.525688,98.0139067 496.983824,98.9653167 496.983824,100.206286 C496.983824,101.11633 496.774772,101.943643 496.361115,102.688225 C496.031969,103.350076 495.533802,103.887829 494.871062,104.301486 C494.21277,104.715142 493.385457,105.046067 492.389123,105.294261 C491.397237,105.542455 490.320841,105.666552 489.164382,105.666552 C486.847016,105.666552 484.863244,105.170164 483.208618,104.177389 L483.208618,104.177389 Z" fill="#5A46FF"></path>
    </g>
</svg>

<svg width="512" height="161" xmlns="http://www.w3.org/2000/svg" preserveAspectRatio="xMidYMid">
	<path d="M80.063 160.125C15.49 160.125 0 144.635 0 80.063S15.49 0 80.063 0c64.571 0 80.062 15.49 80.062 80.063 0 64.571-15.49 80.062-80.062 80.062ZM57.397 39.624l-25.111 57.07c-1.142 2.773-2.12 6.36-2.12 9.458 0 14.186 9.947 24.133 24.133 24.133 4.649 0 8.51-1.221 12.434-2.463l.004-.001c4.058-1.285 8.186-2.59 13.326-2.59 5.199 0 9.228 1.294 13.209 2.573 3.885 1.248 7.722 2.481 12.554 2.481 14.186 0 24.133-9.947 24.133-24.133 0-3.098-.979-6.685-2.12-9.457l-25.11-57.071c-4.24-9.621-12.394-14.839-22.666-14.839-10.273 0-18.426 5.218-22.666 14.839Zm-2.12 66.04L80.063 49.57l24.459 56.092c-7.012-3.424-15.817-5.055-24.46-5.055-8.968 0-17.447 1.631-24.785 5.055Zm237.43 8.069c.993-.745 1.82-1.49 2.482-2.234v4.592h15.388V35.428H295.19v29.907c-.662-.745-1.489-1.49-2.482-2.234-.91-.744-1.985-1.365-3.226-1.861-1.158-.58-2.482-1.034-3.971-1.365a18.366 18.366 0 0 0-4.22-.497c-4.053 0-7.652.786-10.796 2.358-3.144 1.49-5.791 3.558-7.942 6.205-2.151 2.647-3.806 5.709-4.964 9.183-1.076 3.475-1.613 7.24-1.613 11.293 0 3.971.537 7.735 1.613 11.293 1.158 3.475 2.813 6.536 4.964 9.183 2.15 2.647 4.798 4.716 7.942 6.205 3.144 1.49 6.743 2.234 10.796 2.234 1.407 0 2.813-.166 4.22-.497 1.489-.33 2.813-.744 3.97-1.24 1.242-.58 2.317-1.2 3.227-1.862Zm-1.737-39.09c1.903 1.158 3.31 2.688 4.22 4.59v18.243c-.91 1.903-2.317 3.475-4.22 4.716-1.903 1.158-4.012 1.737-6.329 1.737-2.068 0-3.93-.372-5.584-1.117-1.655-.827-3.061-1.902-4.22-3.226-1.075-1.407-1.944-3.061-2.606-4.964-.579-1.903-.868-3.971-.868-6.205s.29-4.302.868-6.205c.662-1.903 1.53-3.516 2.606-4.84a12.838 12.838 0 0 1 4.22-3.35c1.654-.827 3.516-1.241 5.584-1.241 2.317 0 4.426.62 6.329 1.861Zm-56.811 38.47v2.978h14.767V80.723c0-6.701-2.026-11.913-6.08-15.636-4.054-3.806-9.804-5.709-17.25-5.709-3.144 0-6.04.455-8.687 1.365-2.647.91-5.005 2.193-7.073 3.847a21.325 21.325 0 0 0-4.964 5.585 20.552 20.552 0 0 0-2.482 6.95h14.644c.579-1.655 1.53-2.938 2.854-3.848 1.323-.91 3.102-1.365 5.336-1.365 3.061 0 5.295.827 6.701 2.482 1.49 1.655 2.234 3.682 2.234 6.08v4.096c-1.158-.827-2.937-1.572-5.336-2.234a26.96 26.96 0 0 0-7.198-.992c-3.06 0-5.915.455-8.563 1.365-2.564.827-4.84 2.027-6.825 3.598-1.903 1.49-3.392 3.351-4.467 5.585-1.076 2.15-1.614 4.55-1.614 7.197 0 2.896.538 5.46 1.614 7.694 1.075 2.234 2.523 4.137 4.343 5.709 1.903 1.489 4.095 2.647 6.577 3.475 2.482.744 5.13 1.116 7.942 1.116 3.061 0 5.833-.413 8.315-1.24 2.565-.91 4.302-1.82 5.212-2.73Zm-1.365-18.119c.662.58 1.117 1.241 1.365 1.986v4.095c-.248.745-.703 1.406-1.365 1.986-.662.579-1.448 1.075-2.358 1.489-.91.413-1.903.744-2.978.992a21.19 21.19 0 0 1-3.227.249 17.13 17.13 0 0 1-3.599-.373 10.885 10.885 0 0 1-3.226-1.24 7.793 7.793 0 0 1-2.234-2.11c-.496-.828-.744-1.862-.744-3.103 0-1.158.248-2.15.744-2.978a7.195 7.195 0 0 1 2.234-2.234c.993-.579 2.068-.993 3.226-1.24a17.13 17.13 0 0 1 3.6-.373c1.075 0 2.15.124 3.226.372a9.037 9.037 0 0 1 2.978.993c.91.414 1.696.91 2.358 1.49Zm140.022-6.577c0 4.22-.662 8.108-1.985 11.665-1.324 3.558-3.186 6.619-5.585 9.183-2.316 2.565-5.17 4.55-8.562 5.957-3.31 1.406-6.991 2.11-11.045 2.11s-7.777-.704-11.169-2.11c-3.31-1.406-6.163-3.392-8.562-5.957-2.317-2.564-4.137-5.625-5.46-9.183-1.324-3.557-1.986-7.446-1.986-11.665 0-4.302.662-8.19 1.985-11.665 1.324-3.557 3.144-6.619 5.46-9.183a24.178 24.178 0 0 1 8.563-6.081c3.392-1.406 7.115-2.11 11.169-2.11s7.735.704 11.045 2.11c3.392 1.406 6.246 3.433 8.562 6.08 2.399 2.565 4.26 5.627 5.585 9.184 1.323 3.475 1.985 7.363 1.985 11.665Zm-15.264 0c0-2.316-.248-4.467-.744-6.453-.497-1.986-1.283-3.682-2.358-5.088-.993-1.406-2.234-2.482-3.723-3.226-1.49-.828-3.186-1.241-5.088-1.241-1.903 0-3.6.413-5.088 1.24-1.49.745-2.772 1.82-3.847 3.227-.993 1.406-1.737 3.102-2.234 5.088-.496 1.986-.745 4.137-.745 6.453 0 2.317.249 4.468.745 6.453.497 1.903 1.241 3.558 2.234 4.964a12.373 12.373 0 0 0 3.847 3.35c1.489.828 3.185 1.242 5.088 1.242 1.902 0 3.599-.414 5.088-1.241a11.11 11.11 0 0 0 3.723-3.351c1.075-1.406 1.861-3.061 2.358-4.964.496-1.985.744-4.136.744-6.453Zm38.623-27.798h-15.388v55.472h15.388V80.97c.248-1.24.704-2.316 1.365-3.226a9.652 9.652 0 0 1 2.358-2.482 10.059 10.059 0 0 1 2.979-1.49 11.328 11.328 0 0 1 3.35-.496c3.061 0 5.336.91 6.825 2.73 1.49 1.82 2.234 4.178 2.234 7.074v33.01h15.388V79.854c0-6.122-1.696-11.044-5.088-14.767-3.392-3.806-8.231-5.709-14.52-5.709-3.143 0-6.038.62-8.686 1.862-2.647 1.24-4.716 2.73-6.205 4.467V60.62Zm45.157 55.472V60.619h15.39v55.472h-15.39Zm16.88-71.48c0 2.647-.913 4.798-2.732 6.453-1.819 1.572-3.972 2.358-6.454 2.358-2.397 0-4.509-.786-6.329-2.358-1.82-1.655-2.73-3.806-2.73-6.453 0-2.565.91-4.633 2.73-6.205 1.82-1.655 3.932-2.482 6.33-2.482 2.481 0 4.634.827 6.453 2.482 1.82 1.572 2.731 3.64 2.731 6.205Zm24.997 59.566c-1.655-.992-2.771-2.523-3.35-4.591h-15.265c.414 2.813 1.281 5.336 2.607 7.57 1.405 2.15 3.184 4.012 5.333 5.584 2.152 1.49 4.634 2.606 7.445 3.35 2.816.828 5.916 1.242 9.31 1.242 3.145 0 6.12-.414 8.936-1.241 2.81-.828 5.213-1.986 7.197-3.475 2.068-1.572 3.682-3.475 4.839-5.708 1.156-2.234 1.739-4.758 1.739-7.57 0-4.22-1.241-7.653-3.723-10.3-2.482-2.648-6.165-4.592-11.044-5.833l-11.418-2.606c-1.739-.414-3.02-.951-3.847-1.613-.748-.745-1.117-1.655-1.117-2.73 0-1.738.743-3.02 2.233-3.847a9.983 9.983 0 0 1 5.088-1.365c2.562 0 4.51.537 5.832 1.613 1.405.993 2.357 2.275 2.855 3.847h14.518c-.827-5.295-3.184-9.473-7.072-12.534-3.887-3.061-9.31-4.592-16.257-4.592-3.145 0-6.08.455-8.811 1.365-2.647.828-4.964 2.027-6.948 3.6a17.46 17.46 0 0 0-4.72 5.708c-1.071 2.15-1.61 4.591-1.61 7.321 0 4.716 1.322 8.274 3.973 10.673 2.726 2.316 6.204 3.97 10.421 4.964l11.169 2.482c1.903.496 3.269 1.116 4.096 1.861.908.662 1.366 1.613 1.366 2.854 0 .91-.21 1.738-.623 2.482-.329.662-.827 1.2-1.49 1.613-.658.414-1.486.745-2.482.993a13.27 13.27 0 0 1-3.225.373c-2.317 0-4.3-.497-5.955-1.49Z" fill="#5A46FF"/>
</svg>
